src/assets/images/podium.svg

<?xml version="1.0" encoding="iso-8859-1"?>
<!-- Generator: Adobe Illustrator 19.0.0, SVG Export Plug-In . SVG Version: 6.00 Build 0)  -->
<svg version="1.1" id="Capa_1" xmlns="http://www.w3.org/2000/svg" xmlns:xlink="http://www.w3.org/1999/xlink" x="0px" y="0px"
	 viewBox="0 0 57 57" style="enable-background:new 0 0 57 57;" xml:space="preserve">
<path style="fill:#546A79;" d="M38,35v-7.845c0-1.19-0.967-2.155-2.157-2.155H21.155C19.965,25,19,25.965,19,27.156v12.689
	C19,41.035,18.035,42,16.844,42H6.155C4.965,42,4,42.965,4,44.156v11.596c0,0.686,0.556,1.242,1.242,1.242h14.755h16.997L51.757,57
	C52.443,57,53,56.444,53,55.757V39.161c0-1.19-0.964-2.156-2.155-2.156l-10.69-0.004C38.965,37,38,36.19,38,35z"/>
<circle style="fill:#F3D55B;" cx="28.5" cy="33.5" r="4.5"/>
<circle style="fill:#8697CB;" cx="44.5" cy="46.5" r="4.5"/>
<circle style="fill:#88C057;" cx="12.5" cy="49.5" r="4.5"/>
<path style="fill:#F0C419;" d="M34.839,14.611c0.934-1.563,1.556-3.287,1.934-5.068c0.456-2.152,1.127-5.692,1.217-8.335
	C38.012,0.544,37.465,0,36.801,0h-7.82h-7.82c-0.664,0-1.211,0.544-1.189,1.208c0.089,2.643,0.761,6.183,1.217,8.335
	c0.378,1.781,0.999,3.505,1.934,5.068c1.79,2.994,3.69,3.95,4.83,4.253l-0.177,0.36C26.357,22.109,25.26,24,23,24
	c-0.553,0-1,0.447-1,1s0.447,1,1,1h12c0.553,0,1-0.447,1-1s-0.447-1-1-1c-2.26,0-3.357-1.891-4.774-4.776l-0.179-0.362
	C31.177,18.555,33.055,17.595,34.839,14.611z"/>
<path style="fill:none;stroke:#F29C1F;stroke-width:2;stroke-linecap:round;stroke-linejoin:round;stroke-miterlimit:10;" d="
	M37.586,5.108c-0.249,1.644-0.562,3.25-0.813,4.435c-0.378,1.781-0.999,3.505-1.934,5.068c-0.196,0.327-0.392,0.624-0.589,0.905
	C34.938,15.824,35.697,16,36.5,16c3.038,0,5.5-2.462,5.5-5.5C42,7.834,40.103,5.613,37.586,5.108z"/>
<path style="fill:none;stroke:#F29C1F;stroke-width:2;stroke-linecap:round;stroke-linejoin:round;stroke-miterlimit:10;" d="
	M23.121,14.611c-0.934-1.563-1.556-3.287-1.934-5.068c-0.251-1.183-0.564-2.786-0.812-4.427C17.877,5.635,16,7.848,16,10.5
	c0,3.038,2.462,5.5,5.5,5.5c0.791,0,1.542-0.17,2.221-0.471C23.521,15.245,23.32,14.943,23.121,14.611z"/>
<g>
</g>
<g>
</g>
<g>
</g>
<g>
</g>
<g>
</g>
<g>
</g>
<g>
</g>
<g>
</g>
<g>
</g>
<g>
</g>
<g>
</g>
<g>
</g>
<g>
</g>
<g>
</g>
<g>
</g>
</svg>

<svg id="feb28f5d-c701-414f-a086-ed9025185a65" data-name="Capa 1" xmlns="http://www.w3.org/2000/svg" viewBox="0 0 49 57"><defs><style>.e1bb3eb6-da30-4284-9aef-bba84249dc82{fill:#656565;}.f1e6e401-97c2-4de8-8190-39c5c0a9dd13{fill:#d1d1d1;}.cc988f52-5e70-4314-9ab4-c983f9dd9205{fill:#989898;}.\36 7ff1d71-1e9e-42ad-a48d-34155ab67010{fill:#a4a4a4;}.b1edc45c-a8e4-471e-a00d-828c5c7a00a4{fill:#bebebe;}.\31 626ebbb-9f4f-4d19-8777-e975253c2881{fill:none;stroke:#a8a8a8;stroke-linecap:round;stroke-linejoin:round;stroke-width:2px;}</style></defs><title>podium</title><path class="e1bb3eb6-da30-4284-9aef-bba84249dc82" d="M38,35V27.16A2.16,2.16,0,0,0,35.84,25H21.16A2.16,2.16,0,0,0,19,27.16V39.85A2.16,2.16,0,0,1,16.84,42H6.16A2.16,2.16,0,0,0,4,44.16v11.6A1.24,1.24,0,0,0,5.24,57H51.76A1.24,1.24,0,0,0,53,55.76V39.16A2.16,2.16,0,0,0,50.85,37H40.16A2,2,0,0,1,38,35Z" transform="translate(-4)"/><circle class="f1e6e401-97c2-4de8-8190-39c5c0a9dd13" cx="24.5" cy="33.5" r="4.5"/><circle class="cc988f52-5e70-4314-9ab4-c983f9dd9205" cx="40.5" cy="46.5" r="4.5"/><circle class="67ff1d71-1e9e-42ad-a48d-34155ab67010" cx="8.5" cy="49.5" r="4.5"/><path class="b1edc45c-a8e4-471e-a00d-828c5c7a00a4" d="M34.84,14.61a16.54,16.54,0,0,0,1.93-5.07A54.61,54.61,0,0,0,38,1.21,1.18,1.18,0,0,0,36.8,0H21.16A1.18,1.18,0,0,0,20,1.21a54.49,54.49,0,0,0,1.22,8.34,16.51,16.51,0,0,0,1.93,5.07c1.79,3,3.69,4,4.83,4.25l-0.18.36C26.36,22.11,25.26,24,23,24a1,1,0,0,0,0,2H35a1,1,0,0,0,0-2c-2.26,0-3.36-1.89-4.77-4.78L30,18.86C31.18,18.56,33.06,17.59,34.84,14.61Z" transform="translate(-4)"/><path class="1626ebbb-9f4f-4d19-8777-e975253c2881" d="M37.59,5.11C37.34,6.75,37,8.36,36.77,9.54a16.51,16.51,0,0,1-1.93,5.07c-0.2.33-.39,0.62-0.59,0.9A5.5,5.5,0,1,0,37.59,5.11Z" transform="translate(-4)"/><path class="1626ebbb-9f4f-4d19-8777-e975253c2881" d="M23.12,14.61a16.54,16.54,0,0,1-1.93-5.07c-0.25-1.18-.56-2.79-0.81-4.43a5.5,5.5,0,1,0,3.35,10.41C23.52,15.24,23.32,14.94,23.12,14.61Z" transform="translate(-4)"/></svg>
